static/logos/docusign-glyph-color.svg

<svg width="50" height="50" viewBox="0 0 50 50" fill="none" xmlns="http://www.w3.org/2000/svg">
<g clip-path="url(#clip0_1_2970)">
<path d="M50 0H0V50H50V0Z" fill="#D6FB00"/>
<path d="M35.0461 21.9416L24.6626 32.713L14.2649 21.9416L17.4467 18.641L22.3331 23.7099V9.97681H26.9496V23.7099L31.836 18.641L35.0461 21.9416ZM9.64844 39.9036H39.6485V35.1147H9.64844V39.9036Z" fill="black"/>
</g>
<defs>
<clipPath id="clip0_1_2970">
<rect width="50" height="50" fill="white"/>
</clipPath>
</defs>
</svg>

<svg xmlns="http://www.w3.org/2000/svg" width="64" height="64" fill="none" viewBox="0 0 50 50"><g clip-path="url(#a)"><path fill="#D6FB00" d="M50 0H0v50h50V0Z"/><path fill="#000" d="M35.046 21.942 24.663 32.713 14.265 21.942l3.182-3.301 4.886 5.069V9.977h4.617V23.71l4.886-5.069 3.21 3.3ZM9.648 39.904h30v-4.79h-30v4.79Z"/></g><defs><clipPath id="a"><path fill="#fff" d="M0 0h50v50H0z"/></clipPath></defs></svg>
